X:1
T: The Cavan Buck
C:
R:Jig
Q:180
K:Bm
M:6/8
L:1/16
B2|d4B2 c4A2|B4c2 d4e2|f4f2 e4d2|c4A2 A2B2c2|d2c2B2 c2B2A2|B4c2 d4e2|f2^g2a2 g2f2e2|f4B2 B4Bc|
d4B2 c4A2|B4c2 d4e2|f4f2 e4d2|c4A2 A2B2c2|d2c2B2 c2B2A2|B4c2 d4e2|f2^g2a2 g2f2e2|f4B2 B4f2|
a4f2 d4e2|f4b2 b4f2|a4f2 e4d2|c4A2 A2B2c2|d2c2B2 c2B2A2|B4c2 d4e2|f2^g2a2 g2f2e2|f4B2 B4f2|
a4f2 d4e2|f4b2 b4f2|a4f2 e4d2|c4A2 A2B2c2|d2c2B2 c2B2A2|B4c2 d4e2|f2^g2a2 g2f2e2|f4B2 B4||
